src/Assets/Icons/General/SubNavbarComponent/phone.svg

<svg width="16" height="16" viewBox="0 0 16 16" fill="none" xmlns="http://www.w3.org/2000/svg">
<path d="M12.8181 15.9999C12.1209 15.9999 11.1416 15.7477 9.67518 14.9284C7.89194 13.9284 6.51264 13.0052 4.73905 11.2362C3.02903 9.52728 2.19688 8.42084 1.03222 6.30153C-0.283511 3.90864 -0.0592222 2.65434 0.191495 2.11827C0.49007 1.47754 0.93079 1.09432 1.50044 0.713963C1.824 0.501973 2.1664 0.32025 2.52331 0.171099C2.55902 0.155742 2.59224 0.141099 2.62188 0.127884C2.79867 0.0482406 3.06653 -0.0721179 3.40582 0.056455C3.63225 0.141456 3.8344 0.315387 4.15083 0.627891C4.79976 1.2679 5.68656 2.69327 6.01371 3.39328C6.23335 3.86507 6.37871 4.1765 6.37907 4.52579C6.37907 4.93473 6.17335 5.25009 5.92371 5.59045C5.87692 5.65438 5.83049 5.71545 5.78549 5.77474C5.5137 6.13189 5.45406 6.2351 5.49334 6.41939C5.57299 6.78975 6.16692 7.89226 7.14301 8.8662C8.11909 9.84015 9.18982 10.3966 9.56161 10.4759C9.75375 10.5169 9.85911 10.4548 10.2277 10.1734C10.2805 10.133 10.3348 10.0912 10.3916 10.0494C10.7723 9.76622 11.0731 9.56586 11.4723 9.56586H11.4745C11.822 9.56586 12.1195 9.71657 12.6124 9.96515C13.2552 10.2894 14.7235 11.1648 15.3674 11.8145C15.6806 12.1302 15.8553 12.3316 15.9406 12.5577C16.0692 12.898 15.9481 13.1648 15.8692 13.3434C15.856 13.373 15.8413 13.4055 15.826 13.4416C15.6756 13.7979 15.4928 14.1396 15.2799 14.4623C14.9002 15.0302 14.5156 15.4699 13.8734 15.7688C13.5437 15.9248 13.1828 16.0038 12.8181 15.9999Z" fill="white"/>
</svg>

<svg xmlns="http://www.w3.org/2000/svg" width="16" height="16" fill="none"><path fill="#fff" d="M12.818 16c-.697 0-1.676-.252-3.143-1.072-1.783-1-3.162-1.923-4.936-3.692-1.71-1.709-2.542-2.815-3.707-4.934C-.284 3.909-.059 2.654.192 2.118.49 1.478.93 1.094 1.5.714A6.3 6.3 0 0 1 2.523.171l.099-.043c.177-.08.445-.2.784-.072.226.085.428.26.745.572.649.64 1.536 2.065 1.863 2.765.22.472.365.784.365 1.133 0 .409-.206.724-.455 1.064l-.139.185c-.271.357-.33.46-.292.644.08.37.674 1.473 1.65 2.447s2.047 1.53 2.419 1.61c.192.04.297-.021.666-.303l.164-.124c.38-.283.681-.483 1.08-.483h.003c.347 0 .645.15 1.137.4.643.323 2.111 1.199 2.755 1.849.314.315.488.517.574.743.128.34.007.607-.072.785l-.043.099q-.226.535-.546 1.02c-.38.568-.764 1.008-1.407 1.307-.33.156-.69.235-1.055.23"/></svg>
